src/assets/img/html5.svg

<?xml version="1.0" encoding="UTF-8" standalone="no" ?>
<!DOCTYPE svg PUBLIC "-//W3C//DTD SVG 1.1//EN" "http://www.w3.org/Graphics/SVG/1.1/DTD/svg11.dtd">
<svg xmlns="http://www.w3.org/2000/svg" xmlns:xlink="http://www.w3.org/1999/xlink" version="1.1" width="256" height="290" viewBox="0 0 256 290" xml:space="preserve">
<desc>Created with Fabric.js 4.2.0</desc>
<defs>
</defs>
<rect x="0" y="0" width="100%" height="100%" fill="transparent"></rect>
<g transform="matrix(1 0 0 1 128 145)" id="b4207082-5003-48b3-8703-d8810c7c4dc1"  >
<rect style="stroke: none; stroke-width: 1; stroke-dasharray: none; stroke-linecap: butt; stroke-dashoffset: 0; stroke-linejoin: miter; stroke-miterlimit: 4; fill: rgb(255,255,255); fill-opacity: 0; fill-rule: nonzero; opacity: 1;" vector-effect="non-scaling-stroke"  x="-128" y="-145" rx="0" ry="0" width="256" height="290" />
</g>
<g transform="matrix(0 0 0 0 0 0)" id="27221088-d3c9-4d0b-ad0a-f4e92351f39b"  >
</g>
<g transform="matrix(0.57 0 0 0.57 128 145)"  >
<path style="stroke: none; stroke-width: 1; stroke-dasharray: none; stroke-linecap: butt; stroke-dashoffset: 0; stroke-linejoin: miter; stroke-miterlimit: 4; fill: rgb(127,127,127); fill-rule: nonzero; opacity: 1;" vector-effect="non-scaling-stroke"  transform=" translate(-441.81, -461.03)" d="M 261.849 660.647 L 221.807 211.52200000000005 L 661.807 211.52200000000005 L 621.721 660.576 L 441.53700000000003 710.53 z" stroke-linecap="round" />
</g>
<g transform="matrix(0.57 0 0 0.57 179.18 144.59)"  >
<path style="stroke: none; stroke-width: 1; stroke-dasharray: none; stroke-linecap: butt; stroke-dashoffset: 0; stroke-linejoin: miter; stroke-miterlimit: 4; fill: rgb(76,76,76); fill-rule: nonzero; opacity: 1;" vector-effect="non-scaling-stroke"  transform=" translate(-531.73, -460.3)" d="M 441.807 672.348 L 587.403 631.981 L 621.6610000000001 248.24599999999998 L 441.807 248.24599999999998 z" stroke-linecap="round" />
</g>
<g transform="matrix(0.57 0 0 0.57 88.7 144.01)"  >
<path style="stroke: none; stroke-width: 1; stroke-dasharray: none; stroke-linecap: butt; stroke-dashoffset: 0; stroke-linejoin: miter; stroke-miterlimit: 4; fill: rgb(235,235,235); fill-rule: nonzero; opacity: 1;" vector-effect="non-scaling-stroke"  transform=" translate(-372.75, -459.29)" d="M 441.807 414.82 L 368.919 414.82 L 363.88399999999996 358.414 L 441.80699999999996 358.414 L 441.80699999999996 303.33 L 303.683 303.33 L 305.003 318.108 L 318.541 469.90200000000004 L 441.807 469.90200000000004 z M 441.807 557.876 L 441.565 557.942 L 380.219 541.376 L 376.29699999999997 497.44599999999997 L 321.003 497.44599999999997 L 328.721 583.935 L 441.555 615.2579999999999 L 441.807 615.1869999999999 z" stroke-linecap="round" />
</g>
<g transform="matrix(0.57 0 0 0.57 167.15 144.01)"  >
<path style="stroke: none; stroke-width: 1; stroke-dasharray: none; stroke-linecap: butt; stroke-dashoffset: 0; stroke-linejoin: miter; stroke-miterlimit: 4; fill: rgb(255,255,255); fill-rule: nonzero; opacity: 1;" vector-effect="non-scaling-stroke"  transform=" translate(-510.61, -459.28)" d="M 441.617 414.82 L 441.617 469.902 L 509.447 469.902 L 503.052 541.342 L 441.617 557.922 L 441.617 615.229 L 554.541 583.9350000000001 L 555.3670000000001 574.6260000000001 L 568.3130000000001 429.6120000000001 L 569.6570000000002 414.8200000000001 L 554.8150000000002 414.8200000000001 z M 441.617 303.33 L 441.617 358.414 L 574.67 358.414 L 575.7729999999999 346.032 L 578.2829999999999 318.108 L 579.6009999999999 303.33 z" stroke-linecap="round" />
</g>
</svg>

<svg xmlns="http://www.w3.org/2000/svg" width="1771" height="2500" viewBox="221.807 89.47 440 621.061" enable-background="new 221.807 89.47 440 621.061"><filter id="a" width="150%" height="150%" x="-5%" y="-5%"><feFlood flood-color="#000" result="floodFill" flood-opacity=".5"/><feComposite in="floodFill" in2="SourceAlpha" operator="in" result="coloredAlpha"/><feGaussianBlur in="coloredAlpha" result="blur" stdDeviation="8"/><feComposite in="blur" in2="SourceGraphic" operator="out" result="maskedOffsetBlur"/><feMerge><feMergeNode in="maskedOffsetBlur"/><feMergeNode in="SourceGraphic"/></feMerge></filter><g filter="url(#a)"><path fill="#e44d26" d="M261.849 660.647l-40.042-449.125h440l-40.086 449.054-180.184 49.954z"/><path fill="#f16529" d="M441.807 672.348l145.596-40.367 34.258-383.735H441.807z"/><path fill="#ebebeb" d="M441.807 414.82h-72.888l-5.035-56.406h77.923V303.33H303.683l1.32 14.778 13.538 151.794h123.266zM441.807 557.876l-.242.066-61.346-16.566-3.922-43.93h-55.294l7.718 86.489 112.834 31.323.252-.071z"/><path d="M262.745 89.47h27.992v27.656h25.606V89.47h27.993v83.75h-27.993v-28.044h-25.606v28.044h-27.99l-.002-83.75zM381.149 117.244h-24.642V89.47H433.8v27.774h-24.654v55.976H381.15v-55.976h-.001zM446.065 89.47h29.19l17.955 29.428 17.938-29.428h29.2v83.75h-27.882v-41.512l-19.259 29.778h-.481l-19.272-29.778v41.512h-27.39V89.47zM554.277 89.47h28v56.068h39.368v27.682h-67.368V89.47z"/><path fill="#fff" d="M441.617 414.82v55.082h67.83l-6.395 71.44-61.435 16.58v57.307l112.924-31.294.826-9.309 12.946-145.014 1.344-14.792h-14.842zM441.617 303.33v55.084H574.67l1.103-12.382 2.51-27.924 1.318-14.778z"/></g></svg>
